!!!OTL: WENN DER SCHNEE VON DEN ALPEN
!!!ARE: Europa, Mitteleuropa, Oesterreich, Steiermark
!!!SCT: E1485
!!!YEM: Copyright 1995, estate of Helmut Schaffrath.
**kern
*ICvox
*Ivox
*M3/4
*k[f#c#g#]
*A:
{8e
8f#
=1
4e
8a
8a
8a
8a
=2
8.dd
16dd
4g#}
{8.e
16f#
=3
8.e
16g#
8g#
8g#
8f#
8e
=4
8.cc#
16cc#
4a}
{12e
12f#
12g#
=5
8.a
16b
8cc#
8b
8a
8g#
=6
8dd
8cc#
8a}
{8a
8g#
8f#
=7
8.e
16ee
8ee
8ee
8dd
8g#
=8
4a
4r}
{12e
12f#
12g#
=9
4a
8c#
8e
8a
8cc#
=10
8.dd
16cc#
8.dd
16cc#
4b}
=11
{8.dd
16cc#
8.dd
16cc#
4b
=12
8.cc#
16b
8.cc#
16b
4a}
=13
{8c#
8e
8a
8cc#
8ee
8cc#
=14
8.ff#
16ee
8.dd
16cc#
8b
16r}
{16a
=15
8g#
8b
8dd
8ff#
8e
16r
16g#
=16
4a
8aa
8r}
==
!!!AGN: Staende -, Hirten -, Alpen - Lied
!!!ONB: ESAC (Essen Associative Code) Database: ERK3
!!!AMT: simple triple
!!!AIN: vox
!!!EED: Helmut Schaffrath
!!!EEV: 1.0
*-
